brandFactory_export/2.Regular/Señal carretera_2Regular.svg

<?xml version="1.0" encoding="UTF-8"?>
<svg width="24px" height="24px" viewBox="0 0 24 24" version="1.1" xmlns="http://www.w3.org/2000/svg" xmlns:xlink="http://www.w3.org/1999/xlink">
    <title>2.Regular/Señal carretera_2Regular</title>
    <g id="Symbols" stroke="none" stroke-width="1" fill="none" fill-rule="evenodd">
        <g id="2.Regular/Señal-carretera_2Regular" fill="#5CB615" fill-rule="nonzero">
            <path d="M11.8084034,22.1747899 C18.6857143,22.1747899 22.1747899,18.6890756 22.1747899,11.8151261 C22.1747899,4.93781513 18.6890756,1.4487395 11.8084034,1.4487395 C4.93445378,1.4487395 1.4487395,4.93781513 1.4487395,11.8151261 C1.4487395,18.6890756 4.93445378,22.1747899 11.8084034,22.1747899 Z M11.8084034,0 C19.5361345,0 23.6235294,4.08403361 23.6235294,11.8151261 C23.6235294,19.5394958 19.5394958,23.6235294 11.8084034,23.6235294 C4.08403361,23.6235294 0,19.5394958 0,11.8151261 C0,4.08403361 4.08403361,0 11.8084034,0 Z M14.1277311,11.8319328 L16.6991597,9.34453782 L14.1277311,6.85378151 L14.1277311,7.43865546 C14.1277311,7.83865546 13.7310924,8.22521008 13.3310924,8.22521008 L8.65882353,8.22521008 L8.65882353,17.3680672 L10.6890756,17.3680672 L10.6890756,11.1932773 C10.6890756,10.7932773 11.0151261,10.4705882 11.4117647,10.4705882 L13.3277311,10.4705882 C13.5193277,10.4705882 13.7411765,10.5781513 13.8756303,10.712605 C14.0134454,10.8470588 14.1243697,11.0621849 14.1243697,11.2537815 L14.1243697,11.8319328 L14.1277311,11.8319328 Z M14.3361345,5.03865546 L18.0302521,8.61512605 C18.2184874,8.77310924 18.3495798,9.05210084 18.3495798,9.34453782 C18.3495798,9.63697479 18.2218487,9.91596639 17.9966387,10.1042017 L14.3932773,13.589916 C14.3831933,13.6 14.3731092,13.6067227 14.3630252,13.6168067 C14.3394958,13.6403361 14.3092437,13.6605042 14.2823529,13.6773109 C14.0369748,13.8823529 13.610084,13.9361345 13.2537815,13.7647059 C12.9008403,13.5966387 12.6823529,13.2504202 12.6823529,12.8605042 L12.6823529,11.912605 L12.1411765,11.912605 L12.1411765,18.0840336 C12.1411765,18.4840336 11.8151261,18.8067227 11.4184874,18.8067227 L7.9394958,18.8067227 C7.5394958,18.8067227 7.21680672,18.4840336 7.21680672,18.0840336 L7.21680672,8.14117647 C7.21680672,7.77142857 7.36134454,7.42521008 7.62016807,7.16638655 C7.87563025,6.90756303 8.22184874,6.76638655 8.58823529,6.76638655 L12.6823529,6.76638655 L12.6823529,5.81512605 C12.6823529,5.42521008 12.9042017,5.0789916 13.2605042,4.91092437 C13.6134454,4.7394958 14.0268908,4.78991597 14.3361345,5.03865546 Z" id="Señal-carretera_2Regular"></path>
        </g>
    </g>
</svg>

<svg width="24" height="24" viewBox="0 0 24 24" xmlns="http://www.w3.org/2000/svg"><path d="M11.808 22.175c6.878 0 10.367-3.486 10.367-10.36 0-6.877-3.486-10.366-10.367-10.366-6.874 0-10.36 3.489-10.36 10.366 0 6.874 3.486 10.36 10.36 10.36zm0-22.175c7.728 0 11.816 4.084 11.816 11.815 0 7.724-4.085 11.809-11.816 11.809C4.084 23.624 0 19.539 0 11.815 0 4.084 4.084 0 11.808 0zm2.32 11.832l2.571-2.487-2.571-2.491v.585c0 .4-.397.786-.797.786H8.66v9.143h2.03v-6.175c0-.4.326-.722.723-.722h1.916c.191 0 .413.107.548.242.137.134.248.35.248.54v.579h.004zm.208-6.793l3.694 3.576c.188.158.32.437.32.73a.99.99 0 01-.353.76l-3.604 3.485-.03.027a.46.46 0 01-.08.06c-.246.205-.673.26-1.03.088a.993.993 0 01-.57-.904v-.948h-.542v6.171c0 .4-.326.723-.723.723H7.94a.722.722 0 01-.722-.723V8.141a1.37 1.37 0 011.371-1.375h4.094v-.95c0-.39.222-.737.579-.905a1.005 1.005 0 011.075.128z" fill="#5CB615" fill-rule="nonzero"/></svg>
